X:1
T:Happy Town of Salem, 11.11.11.11
T:Happy Town of Salem, 11.11.11.11
T:George E. Martin, 1899
T:Public Domain Courtesy of the Cyber Hymnal™
C:George E. Martin, 1899
Z:Public Domain
Z:Courtesy of the Cyber Hymnal™
%%score ( 1 2 ) 3
L:1/8
Q:1/4=110
M:4/4
K:Ab
V:1 treble 
V:2 treble 
V:3 bass 
V:1
 [CE]2 [CE]2 [DF]2 [CE]2 | [CEc]4 [CEA]4 | [DF]2 [DF]2 [DG]3 [DF] | [CE]8 | %4
 [CE]2 [CE]2 [DF]2 [CE]2 | [CEc]4 [EA]4 | [=DB]3 [DF] [DB]3 [Dc] | [DB]4 [DE]4 | %8
 [CE]2 [CE]2 [DF]2 [CE]2 | [CEc]4 [CEA]4 | [CEc]3 [CEc] [CEB]2 [CEA]2 | [DFA]8 | A2 A2 G2 F2 | %13
 [=B,F]4 [CE]4 | [CE]2 [CEc]2 [DEB]3 [CEA] | [CEA]8 |] %16
V:2
 x8 | x8 | x8 | x8 | x8 | x8 | x8 | x8 | x8 | x8 | x8 | x8 | =B,8 | x8 | x8 | x8 |] %16
V:3
 [A,,E,A,]4 [A,,E,A,]4 | [A,,E,]4 [A,,E,]4 | [A,,E,]2 [A,,E,]2 [A,,F,]3 [A,,G,] | [A,,A,]8 | %4
 [A,,E,A,]4 [A,,E,A,]4 | [A,,E,]4 [C,A,]4 | [B,,A,]3 [B,,A,] [B,,A,]3 [B,,A,] | [E,G,]8 | %8
 [A,,E,A,]4 [A,,E,A,]4 | [A,,E,A,]4 [A,,E,A,]4 | [_G,A,]3 [G,A,] [G,A,]2 [G,A,]2 | [F,A,]8 | %12
 [=D,A,]4 [D,A,]4 | [E,A,]4 [E,A,]4 | [E,A,]2 [E,A,]2 [E,G,]3 [A,,E,A,] | [A,,E,A,]8 |] %16

